X:65
T:Blithest Lass That E'er Was Seen THO1.065, The
M:6/8
L:1/8
Z:vmp. Peter Dunk 2012.from a transcription by Fynn Titford-Mock 2006
B:Thompson's Compleat Collection of 200 Favourite Country Dances Vol.I,1758
Q:3/8=100
K:G
d3 gfg|agf gfg|def gdB|d3e3|d3 gfg|agf gdB|e/f/ge def|gdB G3:|
|:gdg bdb|ada gaf|gdg bdb|ada gaf|gdg bdb|ada gaf|gfe dcB|TA3G3:|

